X:96
T:Tower Colliery March
M:2/4
L:1/8
Q:160
C:Ceri Rhys Matthews
R:Processional
K:D
EG GE | FA Ad | dc cA | AF FD | EG GE | FA
Ad | dc cA | F3 :||: c | cA AF | FE FA
| AE ED | DE Ec | cA AF |1 FE FA | E2 ED | E3 :||
2 FE FA- | AE/2F/2 GA | G/2A/2G/2F/2 ED ||
